X:1
T:Porgini Giesu
T:Porgini Giesu
T:Tomaso Cechino
T:Source : Canti Spirituale a uno, due et tre voci + BC ---Venetia---G.Vincenti---1613. Editor : André Vierendeels (27/10/16).
T:Notes : Original clfs : G2, G2, C4, C4 (F4) Editorial accidentals above the staff Figures in BC are notated in original print
T:-natural
T:©
T:©
T:©
T:©
C:Tomaso Cechino
Z:©
%%score [ 1 2 3 ] 4
L:1/8
Q:1/4=118
M:4/4
K:F
V:1 treble nm="Soprano 1" snm="S 1"
V:2 treble nm="Soprano 2" snm="S 2"
V:3 treble-8 nm="Tenor" snm="T"
V:4 bass nm="MusicXML Part"
V:1
 e3 d c2 d2- | d2 e2 f4 | e2 g2 f2 e2 | d2 c2 B2 c2- | c2 B2 c2 g2 | d3 d e2 f2 | g4 z2 c2 | %7
w: Por- gi- ni Gie-|* su mi-|o, quel- le ver-|mi- glie ro- *|* * se, che|son nel tuo bel|crin, che|
 B3 B c2 e2 | d2 d2 ef g2- | g2 ^f2 g2 g2 | e4 f2 a2 | gfed e2 dc | B2 c4 B2 | c8 :: %14
w: son nel tuo bel|crin tra spi- ne'as- co|_ _ se, tra|spi- ne, tra|spi- * * * * * *|ne'as- co- *|se,|
[M:3/4] c2 e2 f2 | d4 e2 | f2 f2 z2 |"^-natural" c2 B2 A2 | ^F4 ^G2 |[M:4/4] A2 A2 z4 | z4 z2 B2 | %21
w: ac- cio po-|nen- do|l'i- o,|su le mie|chio- me'al-|tie- re,|co-|
 c3 c B3 B | A4 G2 G2 | c3 d e4- | e4 c4 | B2 c4 B2 | c8 :| %27
w: no- sca fra le|spi- ne, qual|sian le ro-|* se|ve- * *|re.|
V:2
 c3 d e2 f2- | f2 g2 a4 | g4 z2 g2 | f2 e2 d2 c2 | d4 e4 | z4 z2 c2 | B3 B c2 e2 | d2 d2 e2 c2 | %8
w: Por- gi- ni Gie-|* su mi-|o, quel-|le ver- mi- glie|ro- se,|che|son nel tuo bel|crin tra spi- ne'as-|
 G4 G4 | z2 A2 Bc d2- | d2 ^c2 d2 f2 | edef g2 fe | d2 c2 d4 | e8 ::[M:3/4] e2 g2 a2 | f4 g2 | %16
w: co- se,|tra spi- ne'as- co-|* * se, tra|spi- * * * * * *|* ne'as- co-|se,|ac- cio po-|nen- do|
 a2 a2 z2 |"^-natural" A2 B2 ^c2 |"^-natural" d4 B2 |[M:4/4] ^c2 c2 z2 d2 | e4 d4 | e2 f2 g2 dB | %22
w: l'i- o,|su le mie|chio- me'al-|tie- ra, co-|no- sca|fra le spi- ne, co-|
 c3 c B3 B | A4 G2 G2 | c3 d e2 ef | g2 e2 d4 | e8 :| %27
w: no- sca fra le|spi- ne, qual|sian le ro- se, le|ro- se ve-|re.|
V:3
 c3 B A2 d2- | d2 c2 F4 | c2 e2 d2 c2 | d2 ef g2 a2 | g4 c2 c2 | B3 B c2 A2 | G2 G2 A2 c2 | %7
w: Por- gi- ni Gie-|* su mi-|o, quel- le ver-|mi- * * * glie|ro- se, che|son nel bel crin|tra spi- * ne'as-|
 G4 C2 c2 | B3 B c2 e2 | d4 G4 | A4 D4 | E6 F2 | G8 | C8 ::[M:3/4] c2 c2 A2 | d4 c2 | F2 F2 z2 | %17
w: co- se, che|son nel tuo bel|crin tra|spi- ne'as-|co- *||se,|ac- cio po-|nen- do|l'i- o,|
 A2 ^G2 A2 | D4 E2 |[M:4/4] A2 A2 z2 B2 | c3 c B3 B | A4 G4 | z4 G4 | A3 B c4 | A8 | G8 | C8 :| %27
w: su le mie|chio- me'al-|tie- ra, co-|no- sca fra le|spi- ne,|qual|sian le ro-|se|ve-|re/|
V:4
"^BC" C3 B, A,2 D2- | D2 C2 F,4 | C,2 E,2 D,2 C,2 | D,2 E,F, G,2 A,2 | G,4 C2 C2 | B,3 B, C2 A,2 | %6
 G,2 G,2 A,2 C2 | G,4 C,2 C,2 | B,,3 B,, C,2 E,2 | D,4 G,4 | A,,4 D,4 | E,6 F,2 | G,8 | C,8 :: %14
[M:3/4] C2 C2 A,2 | D4 C2 | F,2 F,2 z2 |"^#" A,2 ^G,2 A,2 |"^#""^#" D,4 E,2 | %19
[M:4/4]"^#" A,4 z2 B,2 | C3 C B,3 B, |"^-natural" A,4 G,4 | F,4 G,4 | A,3 B, C4 | A,8 | G,8 | %26
 C,8 :| %27

